X:1
T:O quam gloriosum
T:O quam gloriosum
T:Giovanni Girolamo Kapsperger
T:Source : Libro primo di mottetti passeggiati a una voce---Roma---1612. Racolta del Sig.Francesco de Nobili Editor : André Vierendeels (24/10/15).      
T:Notes : Original clefs : G2, F3 Editorial accidentals above the staff Note values have been halved in 3-beat measures
T:#
C:Giovanni Girolamo Kapsperger
%%score 1 2
L:1/8
Q:1/4=80
M:4/4
K:C
V:1 treble nm="Soprano" snm="S"
V:2 bass nm="BC" snm="BC"
V:1
 d8 | G4 A3 A | B4 c2 B/c/4d/4c | A8 | G8 | GA/B/ c/d/e/f/ g4 | c4 d/B/c/d/ e/c/d/e/ | %7
w: O|quam glo- ri-|o- sum est _ _ _|re-|gnum,|O _ _ _ _ _ _ _|quam glo- * * * ri- * * *|
 f4 f2 e/f/4g/4c | d8 | c8 | e4 d2 e2 | f8 | e2 g/fe/ d2 f/ed/ | ^c2 A/B/c/d/ e/f/g/a/ d2 | e8 | %15
w: o- sum est _ _ _|re-|gnum,|in quo cum|Chri-|sto gau- * * * * * *|dent o- * * * * * * * mnes|san-|
 d6 f2 | f2 e2 c2 d2 | e/c/d/e/ f/e/f/d/ e/d/e/c/ f/e/d/c/ | d8 | c4 G4 | G4 A4 | BABG A4 | %22
w: cti, a-|mi- cti sto- lis|al- * * * * * * * * * * * * * * *||bis se-|quun- tur|a- * * * gnum,|
 A B2 ^c d4 | ^G2 G2 A4- | A4 ^G4 | A4 A4 | B4 ^c4 | d4 e2 e2 | ^f2 g2 g4- | g4 ^f4 | g8 | %31
w: quo- * * *|cum- que i-|* e-|rit, se-|quun- tur|a- gnum, quo-|cum- que i-|* e-|rit,|
[M:3/4] e/d/e/f/ e2 d2 | c/B/c/d/ c2 B2 | AB cA d/c/B/A/ | B4 B2 | A6 | a/g/a/b/ a2 g2 | %37
w: ex- * * * * ul-|ta- * * * * bunt|san- * cti _ in _ _ _|glo- ri-|a,|ex- * * * * ul-|
 f/e/f/g/ f2 e2 | de fd g/f/e/d/ | e4 e2 | d6 |[M:4/4] A4 BGAB | cABc dBcd | %43
w: ta- * * * * bunt|san- * cti _ in _ _ _|glo- ri-|a,|ex- ul- * * *|ta- * * * bunt _ _ _|
 e2 d2 e/4d/4e/4d/4e/d/ c2 | d4 c4 | c/d/e/f/ e/d/c/B/ A/B/c/A/ B/c/d/e/ | %46
w: san- * * * * * * * cti|_ in|glo- * * * * * * * * * * * * * * *|
 d/c/B/c/ d/G/A/B/ c/d/G/A/ B/A/4A/4A/G/ | A6 A2 | !fermata!G8 |] %49
w: |* ri-|a.|
V:2
 G,8 | E,4 ^F,4 | G,4 E,4 | D,8 | G,8 | G,8 | A,4 B,2 C2 | F,4 A,4 | G,8 | C,8 | C4 B,4 | A,4 B,4 | %12
 C4 _B,4 | A,6 ^F,2 | A,8 | D,6 D,2 | D,2 E,2 F,2 D,2 | C,2 _B,,2 A,,4 | G,,8 | C,4 C4 | B,4 A,4 | %21
 G,4 D,4 | D,4 B,,4 | E,4 C,4 | B,,8 | A,,4 A,4 | G,2 ^F,2 E,4 | D,4 ^C,4 | D,C, B,,4 A,,G,, | %29
 D,8 |"^b" G,,8 |[M:3/4] C4 G,2 | A,4 E,2 | F,4 A,2 | E,6 | A,,6 | F,4 C,2 | D,4 A,,2 | _B,,4 D,2 | %39
 A,,6 | D,6 |[M:4/4] D,4 G,4 | F,4 D,4 | C,8 | G,,4 A,,4 | A,,8 | B,,8 | D,8 | !fermata!G,,8 |] %49

